;FLAVOR:Marlin
;TIME:10901
;Filament used: 14.8014m
;Layer height: 0.2
;Generated with Cura_SteamEngine 1.2.3
M140 S60
M104 S230
M109 S230
G28
G1 Z50.00 F400
G92 E0
G1 F200 E3
G92 E0
M132 X Y Z A
M907 X100 Y100 Z50 A100
;LAYER_COUNT:500
;LAYER:0
M107
M204 S2000
G0 F3000 X24.4 Y24.4 Z0.3
;TYPE:WALL-INNER
G1 F1500 X-24.4 Y24.4 E2.43464
G1 X-24.4 Y-24.4 E4.86928
G1 X24.4 Y-24.4 E7.30393
G1 X24.4 Y24.4 E9.73857
G0 F3000 X24.8 Y24.8
;TYPE:WALL-OUTER
G1 F1500 X-24.8 Y24.8 E12.21312
G1 X-24.8 Y-24.8 E14.68768
G1 X24.8 Y-24.8 E17.16223
G1 X24.8 Y24.8 E19.63678
G0 F3000 X24.6 Y24.8
G0 X24.33 Y24.33
G0 X-24.2 Y24.2
G0 X-24.035 Y24.047
;TYPE:SKIN
G1 F1500 X-23.469 Y24.047 E19.66502
G1 X-24.047 Y23.469 E19.7058
G1 X-24.047 Y22.903 E19.73404
G1 X-22.903 Y24.047 E19.81476
G1 X-22.338 Y24.047 E19.84294
G1 X-24.047 Y22.338 E19.96352
G1 X-24.047 Y21.772 E19.99176
G1 X-21.772 Y24.047 E20.15227
G1 X-21.206 Y24.047 E20.18051
G1 X-24.047 Y21.206 E20.38096
G1 X-24.047 Y20.641 E20.40915
G1 X-20.641 Y24.047 E20.64946
G1 X-20.075 Y24.047 E20.6777
G1 X-24.047 Y20.075 E20.95794
G1 X-24.047 Y19.509 E20.98618
G1 X-19.509 Y24.047 E21.30636
G1 X-18.944 Y24.047 E21.33455
G1 X-24.047 Y18.944 E21.69459
G1 X-24.047 Y18.378 E21.72283
G1 X-18.378 Y24.047 E22.12281
G1 X-17.812 Y24.047 E22.15105
G1 X-24.047 Y17.812 E22.59096
G1 X-24.047 Y17.247 E22.61915
G1 X-17.247 Y24.047 E23.09893
G1 X-16.681 Y24.047 E23.12716
G1 X-24.047 Y16.681 E23.64687
G1 X-24.047 Y16.115 E23.67511
G1 X-16.115 Y24.047 E24.23476
G1 X-15.549 Y24.047 E24.263
G1 X-24.047 Y15.549 E24.86258
G1 X-24.047 Y14.984 E24.89076
G1 X-14.984 Y24.047 E25.53021
G1 X-14.418 Y24.047 E25.55845
G1 X-24.047 Y14.418 E26.23782
G1 X-24.047 Y13.852 E26.26606
G1 X-13.852 Y24.047 E26.98537
G1 X-13.287 Y24.047 E27.01356
G1 X-24.047 Y13.287 E27.77274
G1 X-24.047 Y12.721 E27.80098
G1 X-12.721 Y24.047 E28.60009
G1 X-12.155 Y24.047 E28.62832
G1 X-24.047 Y12.155 E29.46737
G1 X-24.047 Y11.59 E29.49556
G1 X-11.59 Y24.047 E30.37447
G1 X-11.024 Y24.047 E30.4027
G1 X-24.047 Y11.024 E31.32155
G1 X-24.047 Y10.458 E31.34978
G1 X-10.458 Y24.047 E32.30856
G1 X-9.893 Y24.047 E32.33675
G1 X-24.047 Y9.893 E33.33539
G1 X-24.047 Y9.327 E33.36363
G1 X-9.327 Y24.047 E34.4022
G1 X-8.761 Y24.047 E34.43044
G1 X-24.047 Y8.761 E35.50895
G1 X-24.047 Y8.196 E35.53714
G1 X-8.196 Y24.047 E36.65551
G1 X-7.63 Y24.047 E36.68375
G1 X-24.047 Y7.63 E37.84206
G1 X-24.047 Y7.064 E37.8703
G1 X-7.064 Y24.047 E39.06854
G1 X-6.499 Y24.047 E39.09673
G1 X-24.047 Y6.499 E40.33483
G1 X-24.047 Y5.933 E40.36307
G1 X-5.933 Y24.047 E41.64111
G1 X-5.367 Y24.047 E41.66935
G1 X-24.047 Y5.367 E42.98732
G1 X-24.047 Y4.801 E43.01556
G1 X-4.801 Y24.047 E44.37347
G1 X-4.236 Y24.047 E44.40166
G1 X-24.047 Y4.236 E45.79943
G1 X-24.047 Y3.67 E45.82767
G1 X-3.67 Y24.047 E47.26538
G1 X-3.104 Y24.047 E47.29362
G1 X-24.047 Y3.104 E48.77126
G1 X-24.047 Y2.539 E48.79945
G1 X-2.539 Y24.047 E50.31695
G1 X-1.973 Y24.047 E50.34519
G1 X-24.047 Y1.973 E51.90263
G1 X-24.047 Y1.407 E51.93087
G1 X-1.407 Y24.047 E53.52824
G1 X-.842 Y24.047 E53.55643
G1 X-24.047 Y0.842 E55.19367
G1 X-24.047 Y0.276 E55.2219
G1 X-.276 Y24.047 E56.89908
G1 X0.289 Y24.047 E56.92727
G1 X-24.047 Y-.289 E58.6443
G1 X-24.047 Y-.854 E58.67249
G1 X0.854 Y24.047 E60.42939
G1 X1.42 Y24.047 E60.45763
G1 X-24.047 Y-1.42 E62.25446
G1 X-24.047 Y-1.986 E62.2827
G1 X1.986 Y24.047 E64.11947
G1 X2.551 Y24.047 E64.14766
G1 X-24.047 Y-2.551 E66.02429
G1 X-24.047 Y-3.117 E66.05253
G1 X3.117 Y24.047 E67.96909
G1 X3.683 Y24.047 E67.99733
G1 X-24.047 Y-3.683 E69.95383
G1 X-24.047 Y-4.249 E69.98207
G1 X4.249 Y24.047 E71.97851
G1 X4.814 Y24.047 E72.00669
G1 X-24.047 Y-4.814 E74.04299
G1 X-24.047 Y-5.38 E74.07123
G1 X5.38 Y24.047 E76.14747
G1 X5.946 Y24.047 E76.1757
G1 X-24.047 Y-5.946 E78.29187
G1 X-24.047 Y-6.511 E78.32006
G1 X6.511 Y24.047 E80.47609
G1 X7.077 Y24.047 E80.50433
G1 X-24.047 Y-7.077 E82.7003
G1 X-24.047 Y-7.643 E82.72853
G1 X7.643 Y24.047 E84.96443
G1 X8.208 Y24.047 E84.99262
G1 X-24.047 Y-8.208 E87.26839
G1 X-24.047 Y-8.774 E87.29662
G1 X8.774 Y24.047 E89.61232
G1 X9.34 Y24.047 E89.64056
G1 X-24.047 Y-9.34 E91.99619
G1 X-24.047 Y-9.905 E92.02438
G1 X9.905 Y24.047 E94.41988
G1 X10.471 Y24.047 E94.44812
G1 X-24.047 Y-10.471 E96.88355
G1 X-24.047 Y-11.037 E96.91179
G1 X11.037 Y24.047 E99.38715
G1 X11.602 Y24.047 E99.41534
G1 X-24.047 Y-11.602 E101.93057
G1 X-24.047 Y-12.168 E101.95881
G1 X12.168 Y24.047 E104.51397
G1 X12.734 Y24.047 E104.54221
G1 X-24.047 Y-12.734 E107.13731
G1 X-24.047 Y-13.299 E107.16549
G1 X13.299 Y24.047 E109.80046
G1 X13.865 Y24.047 E109.82869
G1 X-24.047 Y-13.865 E112.50359
G1 X-24.047 Y-14.431 E112.53183
G1 X14.431 Y24.047 E115.24666
G1 X14.997 Y24.047 E115.2749
G1 X-24.047 Y-14.997 E118.02966
G1 X-24.047 Y-15.562 E118.05785
G1 X15.562 Y24.047 E120.85248
G1 X16.128 Y24.047 E120.88072
G1 X-24.047 Y-16.128 E123.71528
G1 X-24.047 Y-16.694 E123.74352
G1 X16.694 Y24.047 E126.61802
G1 X17.259 Y24.047 E126.6462
G1 X-24.047 Y-17.259 E129.56057
G1 X-24.047 Y-17.825 E129.5888
G1 X17.825 Y24.047 E132.5431
G1 X18.391 Y24.047 E132.57134
G1 X-24.047 Y-18.391 E135.56557
G1 X-24.047 Y-18.956 E135.59375
G1 X18.956 Y24.047 E138.62785
G1 X19.522 Y24.047 E138.65609
G1 X-24.047 Y-19.522 E141.73011
G1 X-24.047 Y-20.088 E141.75835
G1 X20.088 Y24.047 E144.87232
G1 X20.653 Y24.047 E144.9005
G1 X-24.047 Y-20.653 E148.05433
G1 X-24.047 Y-21.219 E148.08257
G1 X21.219 Y24.047 E151.27633
G1 X21.785 Y24.047 E151.30457
G1 X-24.047 Y-21.785 E154.53826
G1 X-24.047 Y-22.35 E154.56645
G1 X22.35 Y24.047 E157.84001
G1 X22.916 Y24.047 E157.86825
G1 X-24.047 Y-22.916 E161.18174
G1 X-24.047 Y-23.482 E161.20998
G1 X23.482 Y24.047 E164.5634
G1 X24.047 Y24.047 E164.59159
G1 X-24.047 Y-24.047 E167.98488
G1 X-23.482 Y-24.047 E168.01307
G1 X24.047 Y23.482 E171.3665
G1 X24.047 Y22.916 E171.39474
G1 X-22.916 Y-24.047 E174.70823
G1 X-22.35 Y-24.047 E174.73647
G1 X24.047 Y22.35 E178.01003
G1 X24.047 Y21.785 E178.03822
G1 X-21.785 Y-24.047 E181.27191
G1 X-21.219 Y-24.047 E181.30015
G1 X24.047 Y21.219 E184.49391
G1 X24.047 Y20.653 E184.52215
G1 X-20.653 Y-24.047 E187.67597
G1 X-20.088 Y-24.047 E187.70416
G1 X24.047 Y20.088 E190.81812
G1 X24.047 Y19.522 E190.84636
G1 X-19.522 Y-24.047 E193.92039
G1 X-18.956 Y-24.047 E193.94863
G1 X24.047 Y18.956 E196.98272
G1 X24.047 Y18.391 E197.01091
G1 X-18.391 Y-24.047 E200.00514
G1 X-17.825 Y-24.047 E200.03338
G1 X24.047 Y17.825 E202.98767
G1 X24.047 Y17.259 E203.01591
G1 X-17.259 Y-24.047 E205.93027
G1 X-16.694 Y-24.047 E205.95846
G1 X24.047 Y16.694 E208.83296
G1 X24.047 Y16.128 E208.8612
G1 X-16.128 Y-24.047 E211.69576
G1 X-15.562 Y-24.047 E211.724
G1 X24.047 Y15.562 E214.51863
G1 X24.047 Y14.997 E214.54681
G1 X-14.997 Y-24.047 E217.30158
G1 X-14.431 Y-24.047 E217.32982
G1 X24.047 Y14.431 E220.04465
G1 X24.047 Y13.865 E220.07289
G1 X-13.865 Y-24.047 E222.74778
G1 X-13.299 Y-24.047 E222.77602
G1 X24.047 Y13.299 E225.41098
G1 X24.047 Y12.734 E225.43917
G1 X-12.734 Y-24.047 E228.03427
G1 X-12.168 Y-24.047 E228.06251
G1 X24.047 Y12.168 E230.61767
G1 X24.047 Y11.602 E230.64591
G1 X-11.602 Y-24.047 E233.16114
G1 X-11.037 Y-24.047 E233.18933
G1 X24.047 Y11.037 E235.66469
G1 X24.047 Y10.471 E235.69293
G1 X-10.471 Y-24.047 E238.12836
G1 X-9.905 Y-24.047 E238.1566
G1 X24.047 Y9.905 E240.5521
G1 X24.047 Y9.34 E240.58028
G1 X-9.34 Y-24.047 E242.93592
G1 X-8.774 Y-24.047 E242.96415
G1 X24.047 Y8.774 E245.27985
G1 X24.047 Y8.208 E245.30809
G1 X-8.208 Y-24.047 E247.58386
G1 X-7.643 Y-24.047 E247.61204
G1 X24.047 Y7.643 E249.84794
G1 X24.047 Y7.077 E249.87618
G1 X-7.077 Y-24.047 E252.07215
G1 X-6.511 Y-24.047 E252.10039
G1 X24.047 Y6.511 E254.25642
G1 X24.047 Y5.946 E254.28461
G1 X-5.946 Y-24.047 E256.40077
G1 X-5.38 Y-24.047 E256.42901
G1 X24.047 Y5.38 E258.50525
G1 X24.047 Y4.814 E258.53348
G1 X-4.814 Y-24.047 E260.56978
G1 X-4.249 Y-24.047 E260.59797
G1 X24.047 Y4.249 E262.59441
G1 X24.047 Y3.683 E262.62264
G1 X-3.683 Y-24.047 E264.57915
G1 X-3.117 Y-24.047 E264.60738
G1 X24.047 Y3.117 E266.52395
G1 X24.047 Y2.551 E266.55219
G1 X-2.551 Y-24.047 E268.42882
G1 X-1.986 Y-24.047 E268.45701
G1 X24.047 Y1.986 E270.29378
G1 X24.047 Y1.42 E270.32202
G1 X-1.42 Y-24.047 E272.11885
G1 X-.854 Y-24.047 E272.14709
G1 X24.047 Y0.854 E273.90399
G1 X24.047 Y0.289 E273.93218
G1 X-.289 Y-24.047 E275.64921
G1 X0.276 Y-24.047 E275.6774
G1 X24.047 Y-.276 E277.35457
G1 X24.047 Y-.842 E277.38281
G1 X0.842 Y-24.047 E279.02005
G1 X1.407 Y-24.047 E279.04824
G1 X24.047 Y-1.407 E280.64561
G1 X24.047 Y-1.973 E280.67385
G1 X1.973 Y-24.047 E282.23129
G1 X2.539 Y-24.047 E282.25953
G1 X24.047 Y-2.539 E283.77703
G1 X24.047 Y-3.104 E283.80522
G1 X3.104 Y-24.047 E285.28286
G1 X3.67 Y-24.047 E285.3111
G1 X24.047 Y-3.67 E286.74881
G1 X24.047 Y-4.236 E286.77704
G1 X4.236 Y-24.047 E288.17482
G1 X4.801 Y-24.047 E288.20301
G1 X24.047 Y-4.801 E289.56092
G1 X24.047 Y-5.367 E289.58915
G1 X5.367 Y-24.047 E290.90713
G1 X5.933 Y-24.047 E290.93537
G1 X24.047 Y-5.933 E292.21341
G1 X24.047 Y-6.499 E292.24164
G1 X6.499 Y-24.047 E293.47975
G1 X7.064 Y-24.047 E293.50794
G1 X24.047 Y-7.064 E294.70618
G1 X24.047 Y-7.63 E294.73442
G1 X7.63 Y-24.047 E295.89273
G1 X8.196 Y-24.047 E295.92096
G1 X24.047 Y-8.196 E297.03934
G1 X24.047 Y-8.761 E297.06753
G1 X8.761 Y-24.047 E298.14604
G1 X9.327 Y-24.047 E298.17427
G1 X24.047 Y-9.327 E299.21285
G1 X24.047 Y-9.893 E299.24109
G1 X9.893 Y-24.047 E300.23973
G1 X10.458 Y-24.047 E300.26792
G1 X24.047 Y-10.458 E301.22669
G1 X24.047 Y-11.024 E301.25493
G1 X11.024 Y-24.047 E302.17377
G1 X11.59 Y-24.047 E302.20201
G1 X24.047 Y-11.59 E303.08092
G1 X24.047 Y-12.155 E303.10911
G1 X12.155 Y-24.047 E303.94815
G1 X12.721 Y-24.047 E303.97639
G1 X24.047 Y-12.721 E304.7755
G1 X24.047 Y-13.287 E304.80374
G1 X13.287 Y-24.047 E305.56292
G1 X13.852 Y-24.047 E305.5911
G1 X24.047 Y-13.852 E306.31042
G1 X24.047 Y-14.418 E306.33865
G1 X14.418 Y-24.047 E307.01803
G1 X14.984 Y-24.047 E307.04627
G1 X24.047 Y-14.984 E307.68571
G1 X24.047 Y-15.549 E307.7139
G1 X15.549 Y-24.047 E308.31348
G1 X16.115 Y-24.047 E308.34172
G1 X24.047 Y-16.115 E308.90136
G1 X24.047 Y-16.681 E308.9296
G1 X16.681 Y-24.047 E309.44931
G1 X17.247 Y-24.047 E309.47755
G1 X24.047 Y-17.247 E309.95733
G1 X24.047 Y-17.812 E309.98552
G1 X17.812 Y-24.047 E310.42543
G1 X18.378 Y-24.047 E310.45367
G1 X24.047 Y-18.378 E310.85365
G1 X24.047 Y-18.944 E310.88188
G1 X18.944 Y-24.047 E311.24193
G1 X19.509 Y-24.047 E311.27012
G1 X24.047 Y-19.509 E311.5903
G1 X24.047 Y-20.075 E311.61853
G1 X20.075 Y-24.047 E311.89878
G1 X20.641 Y-24.047 E311.92702
G1 X24.047 Y-20.641 E312.16733
G1 X24.047 Y-21.206 E312.19552
G1 X21.206 Y-24.047 E312.39597
G1 X21.772 Y-24.047 E312.4242
G1 X24.047 Y-21.772 E312.58472
G1 X24.047 Y-22.338 E312.61295
G1 X22.338 Y-24.047 E312.73353
G1 X22.903 Y-24.047 E312.76172
G1 X24.047 Y-22.903 E312.84244
G1 X24.047 Y-23.469 E312.87067
G1 X23.469 Y-24.047 E312.91146
G1 X24.035 Y-24.047 E312.93969
G0 F3000 X-24.047 Y-24.047
G0 X-24 Y-24
G0 X24.33 Y24.33
G0 X24.4 Y24.4
;TIME_ELAPSED:255.732307
;LAYER:1
M140 S60
G1 F3600 E309.93969
M106 S255
M204 S3500
G0 F5100 X24.4 Y24.4 Z0.5
M204 S2000
;TYPE:WALL-INNER
G1 F3600 E312.98127
G1 F2550 X-24.4 Y24.4 E314.60436
G1 X-24.4 Y-24.4 E316.22746
G1 X24.4 Y-24.4 E317.85055
G1 X24.4 Y24.4 E319.47365
M204 S3500
G0 F5100 X24.8 Y24.8
M204 S2000
;TYPE:WALL-OUTER
G1 F1650 X-24.8 Y24.8 E321.12335
G1 X-24.8 Y-24.8 E322.77305
G1 X24.8 Y-24.8 E324.42276
G1 X24.8 Y24.8 E326.07246
M204 S3500
G0 F5100 X24.6 Y24.8
G0 X24.2 Y24.2
G0 X24.047 Y24.035
M204 S2000
;TYPE:SKIN
G1 F1650 X24.047 Y23.469 E326.09128
M204 S3500
M204 S2000
G1 X23.469 Y24.047 E326.11847
M204 S3500
M204 S2000
G1 X22.903 Y24.047 E326.1373
M204 S3500
M204 S2000
G1 X24.047 Y22.903 E326.19111
M204 S3500
M204 S2000
G1 X24.047 Y22.338 E326.2099
M204 S3500
M204 S2000
G1 X22.338 Y24.047 E326.29028
M204 S3500
M204 S2000
G1 X21.772 Y24.047 E326.30911
M204 S3500
M204 S2000
G1 X24.047 Y21.772 E326.41612
M204 S3500
M204 S2000
G1 X24.047 Y21.206 E326.43494
M204 S3500
M204 S2000
G1 X21.206 Y24.047 E326.56858
M204 S3500
M204 S2000
G1 X20.641 Y24.047 E326.58737
M204 S3500
M204 S2000
G1 X24.047 Y20.641 E326.74758
M204 S3500
M204 S2000
G1 X24.047 Y20.075 E326.7664
M204 S3500
M204 S2000
G1 X20.075 Y24.047 E326.95323
M204 S3500
M204 S2000
G1 X19.509 Y24.047 E326.97206
M204 S3500
M204 S2000
G1 X24.047 Y19.509 E327.18551
M204 S3500
M204 S2000
G1 X24.047 Y18.944 E327.2043
M204 S3500
M204 S2000
G1 X18.944 Y24.047 E327.44433
M204 S3500
M204 S2000
G1 X18.378 Y24.047 E327.46316
M204 S3500
M204 S2000
G1 X24.047 Y18.378 E327.72981
M204 S3500
M204 S2000
G1 X24.047 Y17.812 E327.74863
M204 S3500
M204 S2000
G1 X17.812 Y24.047 E328.04191
M204 S3500
M204 S2000
G1 X17.247 Y24.047 E328.0607
M204 S3500
M204 S2000
G1 X24.047 Y17.247 E328.38055
M204 S3500
M204 S2000
G1 X24.047 Y16.681 E328.39938
M204 S3500
M204 S2000
G1 X16.681 Y24.047 E328.74585
M204 S3500
M204 S2000
G1 X16.115 Y24.047 E328.76468
M204 S3500
M204 S2000
G1 X24.047 Y16.115 E329.13777
M204 S3500
M204 S2000
G1 X24.047 Y15.549 E329.1566
M204 S3500
M204 S2000
G1 X15.549 Y24.047 E329.55632
M204 S3500
M204 S2000
G1 X14.984 Y24.047 E329.57511
M204 S3500
M204 S2000
G1 X24.047 Y14.984 E330.00141
M204 S3500
M204 S2000
G1 X24.047 Y14.418 E330.02023
M204 S3500
M204 S2000
G1 X14.418 Y24.047 E330.47315
M204 S3500
M204 S2000
G1 X13.852 Y24.047 E330.49198
M204 S3500
M204 S2000
G1 X24.047 Y13.852 E330.97152
M204 S3500
M204 S2000
G1 X24.047 Y13.287 E330.99031
M204 S3500
M204 S2000
G1 X13.287 Y24.047 E331.49643
M204 S3500
M204 S2000
G1 X12.721 Y24.047 E331.51525
M204 S3500
M204 S2000
G1 X24.047 Y12.721 E332.04799
M204 S3500
M204 S2000
G1 X24.047 Y12.155 E332.06682
M204 S3500
M204 S2000
G1 X12.155 Y24.047 E332.62618
M204 S3500
M204 S2000
G1 X11.59 Y24.047 E332.64497
M204 S3500
M204 S2000
G1 X24.047 Y11.59 E333.23091
M204 S3500
M204 S2000
G1 X24.047 Y11.024 E333.24974
M204 S3500
M204 S2000
G1 X11.024 Y24.047 E333.8623
M204 S3500
M204 S2000
G1 X10.458 Y24.047 E333.88112
M204 S3500
M204 S2000
G1 X24.047 Y10.458 E334.52031
M204 S3500
M204 S2000
G1 X24.047 Y9.893 E334.5391
M204 S3500
M204 S2000
G1 X9.893 Y24.047 E335.20486
M204 S3500
M204 S2000
G1 X9.327 Y24.047 E335.22369
M204 S3500
M204 S2000
G1 X24.047 Y9.327 E335.91607
M204 S3500
M204 S2000
G1 X24.047 Y8.761 E335.9349
M204 S3500
M204 S2000
G1 X8.761 Y24.047 E336.6539
M204 S3500
M204 S2000
G1 X8.196 Y24.047 E336.6727
M204 S3500
M204 S2000
G1 X24.047 Y8.196 E337.41828
M204 S3500
M204 S2000
G1 X24.047 Y7.63 E337.4371
M204 S3500
M204 S2000
G1 X7.63 Y24.047 E338.20931
M204 S3500
M204 S2000
G1 X7.064 Y24.047 E338.22813
M204 S3500
M204 S2000
G1 X24.047 Y7.064 E339.02696
M204 S3500
M204 S2000
G1 X24.047 Y6.499 E339.04575
M204 S3500
M204 S2000
G1 X6.499 Y24.047 E339.87116
M204 S3500
M204 S2000
G1 X5.933 Y24.047 E339.88998
M204 S3500
M204 S2000
G1 X24.047 Y5.933 E340.74201
M204 S3500
M204 S2000
G1 X24.047 Y5.367 E340.76084
M204 S3500
M204 S2000
G1 X5.367 Y24.047 E341.63949
M204 S3500
M204 S2000
G1 X4.801 Y24.047 E341.65831
M204 S3500
M204 S2000
G1 X24.047 Y4.801 E342.56358
M204 S3500
M204 S2000
G1 X24.047 Y4.236 E342.58238
M204 S3500
M204 S2000
G1 X4.236 Y24.047 E343.51422
M204 S3500
M204 S2000
G1 X3.67 Y24.047 E343.53305
M204 S3500
M204 S2000
G1 X24.047 Y3.67 E344.49152
M204 S3500
M204 S2000
G1 X24.047 Y3.104 E344.51035
M204 S3500
M204 S2000
G1 X3.104 Y24.047 E345.49544
M204 S3500
M204 S2000
G1 X2.539 Y24.047 E345.51423
M204 S3500
M204 S2000
G1 X24.047 Y2.539 E346.5259
M204 S3500
M204 S2000
